X: 13775
T: Fort Dunree
R: strathspey
M: 4/4
K: Gmajor
|:gf|e2 dB d3 B|A/B/c BA BGGF|E2 DB, DEGA|B/A/G dB A2 B/c/d|
e2 dB d3 B|A/B/c BA BGGF|E2 D B, DEGB|AGGF G2:|
ga|bdgb a3 gf|g2 gf ed gf|ed dB dB GA|
[1B/A/G dB A2|2 BGGF G2|[3Bdgb a4||
e2 dB d3 B|A/B/c BA BGGF|E2 DB, DEGA|AGGF G4||

